images/icons/star-icon.svg

<svg width="64" height="64" viewBox="0 0 64 64" fill="none" xmlns="http://www.w3.org/2000/svg">
<circle cx="32" cy="32" r="32" fill="#09977C" fill-opacity="0.1"/>
<path d="M41.4696 35.7122C41.0552 36.1138 40.8648 36.6946 40.9592 37.2642L42.3816 45.1362C42.5016 45.8034 42.22 46.4786 41.6616 46.8642C41.1144 47.2642 40.3864 47.3122 39.7896 46.9922L32.7032 43.2962C32.4568 43.165 32.1832 43.0946 31.9032 43.0866H31.4696C31.3192 43.109 31.172 43.157 31.0376 43.2306L23.9496 46.9442C23.5992 47.1202 23.2024 47.1826 22.8136 47.1202C21.8664 46.941 21.2344 46.0386 21.3896 45.0866L22.8136 37.2146C22.908 36.6402 22.7176 36.0562 22.3032 35.6482L16.5256 30.0482C16.0424 29.5794 15.8744 28.8754 16.0952 28.2402C16.3096 27.6066 16.8568 27.1442 17.5176 27.0402L25.4696 25.8866C26.0744 25.8242 26.6056 25.4562 26.8776 24.9122L30.3816 17.7282C30.4648 17.5682 30.572 17.421 30.7016 17.2962L30.8456 17.1842C30.9208 17.101 31.0072 17.0322 31.1032 16.9762L31.2776 16.9122L31.5496 16.8002H32.2232C32.8248 16.8626 33.3544 17.2226 33.6312 17.7602L37.1816 24.9122C37.4376 25.4354 37.9352 25.7986 38.5096 25.8866L46.4616 27.0402C47.1336 27.1362 47.6952 27.6002 47.9176 28.2402C48.1272 28.8818 47.9464 29.5858 47.4536 30.0482L41.4696 35.7122Z" fill="#00F6FF"/>
</svg>

<svg width="64" height="64" fill="none" xmlns="http://www.w3.org/2000/svg"><circle cx="32" cy="32" r="32" fill="#09977C" fill-opacity=".1"/><path d="M41.47 35.712a1.761 1.761 0 0 0-.51 1.552l1.422 7.872a1.728 1.728 0 0 1-.72 1.728c-.548.4-1.276.448-1.872.128l-7.087-3.696a1.81 1.81 0 0 0-.8-.21h-.433c-.15.023-.298.071-.432.145l-7.088 3.713a1.87 1.87 0 0 1-1.136.176 1.778 1.778 0 0 1-1.424-2.033l1.424-7.872a1.79 1.79 0 0 0-.51-1.567l-5.778-5.6a1.727 1.727 0 0 1-.43-1.808 1.797 1.797 0 0 1 1.422-1.2l7.952-1.153a1.78 1.78 0 0 0 1.408-.975l3.504-7.184c.083-.16.19-.307.32-.432l.144-.112c.075-.083.161-.152.257-.208l.175-.064.272-.112h.673a1.79 1.79 0 0 1 1.408.96l3.55 7.152c.257.523.754.887 1.329.975l7.952 1.153c.672.096 1.233.56 1.456 1.2.21.642.028 1.346-.464 1.808l-5.984 5.664Z" fill="#00F6FF"/></svg>
